resources/haticons/SVG/1k_plus.svg

<!-- Generated by IcoMoon.io -->
<svg version="1.1" xmlns="http://www.w3.org/2000/svg" width="24" height="24" viewBox="0 0 24 24">
<title>1k_plus</title>
<path d="M19.5 12.516v-1.031h-1.5v-1.5h-0.984v1.5h-1.5v1.031h1.5v1.5h0.984v-1.5h1.5zM13.734 15h1.781l-2.25-3 2.25-3h-1.781l-1.734 2.25v-2.25h-1.5v6h1.5v-2.25zM9 15v-6h-3v1.5h1.5v4.5h1.5zM18.984 3q0.797 0 1.406 0.609t0.609 1.406v13.969q0 0.797-0.609 1.406t-1.406 0.609h-13.969q-0.797 0-1.406-0.609t-0.609-1.406v-13.969q0-0.797 0.609-1.406t1.406-0.609h13.969z"></path>
</svg>

<svg xmlns="http://www.w3.org/2000/svg" width="24" height="24"><path d="M19.5 12.516v-1.031H18v-1.5h-.984v1.5h-1.5v1.031h1.5v1.5H18v-1.5h1.5zM13.734 15h1.781l-2.25-3 2.25-3h-1.781L12 11.25V9h-1.5v6H12v-2.25zM9 15V9H6v1.5h1.5V15H9zm9.984-12q.797 0 1.406.609t.609 1.406v13.969q0 .797-.609 1.406t-1.406.609H5.015q-.797 0-1.406-.609T3 18.984V5.015q0-.797.609-1.406T5.015 3h13.969z"/></svg>
